X: 3926
T: Blackbird, The
R: hornpipe
M: 4/4
K: Adorian
|:AB|c3B AGAd|edeB G2 E2|G2ge dBAB|G2E2 E2:|
|:(3BcB|efga b2ag|agab (3gag e2|efga b2ag|(3fgf e2 e2ga|
babg a^gae|d^cdB gabz|(3BcB AG AcBA|G2E2 E2:|

